X: 9651
T: Daybreak
R: polka
M: 2/4
K: Gmajor
|:AB AG|ED B,D|G2 AB|d2 dc|
Bc/B/ AG|ED B,D|G2 AB|AG G2:|
K: Dmaj
|:AB/A/ FA|d2 AB|dc/d/ ef|a2 ag|
fg/f/ ed|Bd Ad|fd ec|dB =cB:|

